svg/u2721.svg

<svg viewBox="0 0 128 128" xmlns="http://www.w3.org/2000/svg">
  <g>
    <path d="M116.46,3.96h-104c-4.42,0-8,3.58-8,8v104c0,4.42,3.58,8,8,8h104c4.42,0,8-3.58,8-8v-104 C124.46,7.54,120.88,3.96,116.46,3.96z" fill="#8E24AA"/>
    <path d="M110.16,3.96h-98.2c-4.13,0.03-7.47,3.37-7.5,7.5v97.9c-0.01,4.14,3.34,7.49,7.48,7.5 c0.01,0,0.01,0,0.02,0h98.1c4.14,0.01,7.49-3.34,7.5-7.48c0-0.01,0-0.01,0-0.02v-97.9c0.09-4.05-3.13-7.41-7.18-7.5 C110.31,3.96,110.23,3.96,110.16,3.96z" fill="#AB47BC"/>
    <path d="M40.16,12.86c0-2.3-1.6-3-10.8-2.7c-7.7,0.3-11.5,1.2-13.8,4 s-2.9,8.5-3,15.3c0,4.8,0,9.3,2.5,9.3c3.4,0,3.4-7.9,6.2-12.3C26.66,17.76,40.16,15.86,40.16,12.86z" opacity="0.3" fill="#FAFAFA" enable-background="new "/>
    <path d="M93.76,63.96l13.7-22.5c0.28-0.48,0.11-1.09-0.36-1.37c-0.13-0.08-0.28-0.12-0.44-0.13h-27.5 l-13.9-23.5c-0.29-0.47-0.91-0.61-1.38-0.32c-0.13,0.08-0.24,0.19-0.32,0.32l-13.8,23.5h-27.5c-0.55-0.02-1.01,0.41-1.03,0.97 c-0.01,0.19,0.04,0.37,0.13,0.53l13.8,22.5l-13.8,22.5c-0.28,0.48-0.11,1.09,0.37,1.37c0.16,0.09,0.35,0.14,0.53,0.13h27.6 l13.8,23.5c0.29,0.47,0.91,0.61,1.38,0.32c0.13-0.08,0.24-0.19,0.32-0.32l13.8-23.5h27.6c0.52,0.03,0.96-0.37,0.98-0.89 c0.01-0.22-0.05-0.43-0.18-0.61L93.76,63.96z M97.76,45.96l-7.5,12.2l-7.5-12.2H97.76z M86.76,63.96l-11,18h-22.6l-11-18l11-18 h22.6L86.76,63.96z M64.46,26.56l7.6,13.4h-15.2L64.46,26.56z M31.16,45.96h15l-7.5,12.2L31.16,45.96z M31.16,81.96l7.5-12.2 l7.5,12.2H31.16z M64.46,101.36l-7.6-13.4h15.3L64.46,101.36z M90.26,69.76l7.5,12.2h-15L90.26,69.76z" fill="#FAFAFA"/>
  </g>
</svg>

<svg viewBox="0 0 128 128" xmlns="http://www.w3.org/2000/svg">
  <defs/>
  <path d="M116.46,3.96 L12.46,3.96 C8.04,3.96 4.46,7.54 4.46,11.96 L4.46,115.96 C4.46,120.38 8.04,123.96 12.46,123.96 L116.46,123.96 C120.88,123.96 124.46,120.38 124.46,115.96 L124.46,11.96 C124.46,7.54 120.88,3.96 116.46,3.96 Z" fill="#8E24AA"/>
  <path d="M110.16,3.96 L11.96,3.96 C7.83,3.99 4.49,7.33 4.46,11.46 L4.46,109.36 C4.45,113.5 7.8,116.85 11.94,116.86 C11.95,116.86 11.95,116.86 11.96,116.86 L110.06,116.86 C114.2,116.87 117.55,113.52 117.56,109.38 C117.56,109.37 117.56,109.37 117.56,109.36 L117.56,11.46 C117.65,7.41 114.43,4.05 110.38,3.96 C110.31,3.96 110.23,3.96 110.16,3.96 Z" fill="#AB47BC"/>
  <path d="M40.16,12.86 C40.16,10.56 38.56,9.86 29.36,10.16 C21.66,10.46 17.86,11.36 15.56,14.16 C13.26,16.96 12.66,22.66 12.56,29.46 C12.56,34.26 12.56,38.76 15.06,38.76 C18.46,38.76 18.46,30.86 21.26,26.46 C26.66,17.76 40.16,15.86 40.16,12.86 Z" fill="#FAFAFA" opacity="0.3"/>
  <path d="M93.76,63.96 L107.46,41.46 C107.74,40.98 107.57,40.37 107.1,40.09 C106.97,40.01 106.82,39.97 106.66,39.96 L79.16,39.96 L65.26,16.46 C64.97,15.99 64.35,15.85 63.88,16.14 C63.75,16.22 63.64,16.33 63.56,16.46 L49.76,39.96 L22.26,39.96 C21.71,39.94 21.25,40.37 21.23,40.93 C21.22,41.12 21.27,41.3 21.36,41.46 L35.16,63.96 L21.36,86.46 C21.08,86.94 21.25,87.55 21.73,87.83 C21.89,87.92 22.08,87.97 22.26,87.96 L49.86,87.96 L63.66,111.46 C63.95,111.93 64.57,112.07 65.04,111.78 C65.17,111.7 65.28,111.59 65.36,111.46 L79.16,87.96 L106.76,87.96 C107.28,87.99 107.72,87.59 107.74,87.07 C107.75,86.85 107.69,86.64 107.56,86.46 L93.76,63.96 Z M97.76,45.96 L90.26,58.16 L82.76,45.96 L97.76,45.96 Z M86.76,63.96 L75.76,81.96 L53.16,81.96 L42.16,63.96 L53.16,45.96 L75.76,45.96 L86.76,63.96 Z M64.46,26.56 L72.06,39.96 L56.86,39.96 L64.46,26.56 Z M31.16,45.96 L46.16,45.96 L38.66,58.16 L31.16,45.96 Z M31.16,81.96 L38.66,69.76 L46.16,81.96 L31.16,81.96 Z M64.46,101.36 L56.86,87.96 L72.16,87.96 L64.46,101.36 Z M90.26,69.76 L97.76,81.96 L82.76,81.96 L90.26,69.76 Z" fill="#FAFAFA"/>
</svg>
